X:1
T: The Athole Gathering
C:
R:Jig
Q: 180
K:A
M:6/8
L:1/8
|:A|e3 ecA|ecA Bcd|e3 ecA|Bcd cBA|
e3 ecA|ecA Bcd|eae fed|cdB A2:|
|:c1/2B1/2|Ace Ace|Bdf Bdf|Ace Ace|Bcd c2B|
Ace Ace|Bdf Bdf|eae fed|cdB A2:|
